images/icons/dark/reviews.svg

<svg height="112" viewBox="0 0 101 112" width="101" xmlns="http://www.w3.org/2000/svg" xmlns:xlink="http://www.w3.org/1999/xlink"><defs><path id="a" d="m0 0h96.372093v91.4779535l-20.5207442 20.5220465h-75.8513488zm7.81395349 7.81395349v96.37209351h62.51162791v-18.2312563h18.2325581v-78.14083721zm70.32558141 85.95348841v4.8941395l4.8941395-4.8941395zm-29.9534884-62.511107v-7.8139535h31.255814v7.8139535zm0 13.0232558v-7.8139535h18.2325582v7.8139535zm-24.744186-12.0363535 10.2610232-10.2610232 5.5244651 5.5244651-15.7854883 15.7854883-9.2738605-9.2738604 5.5244651-5.5244651zm24.744186 34.1758884v-7.8139535h31.255814v7.8139535zm0 13.0232558v-7.8139535h18.2325582v7.8139535zm-24.744186-12.0363535 10.2610232-10.2610232 5.5244651 5.5244651-15.7854883 15.7854883-9.2738605-9.2738604 5.5244651-5.5244651z"/><filter id="b" height="103.6%" width="108.3%" x="-2.1%" y="-1.8%"><feOffset dx="4" dy="0" in="SourceAlpha" result="shadowOffsetOuter1"/><feColorMatrix in="shadowOffsetOuter1" type="matrix" values="0 0 0 0 0.0901960784   0 0 0 0 0.882352941   0 0 0 0 0.996078431  0 0 0 1 0"/></filter><path id="c" d="m3 0h96.372093v91.4779535l-20.5207442 20.5220465h-75.8513488zm7.8139535 7.81395349v96.37209351h62.5116279v-18.2312563h18.2325581v-78.14083721zm70.3255814 85.95348841v4.8941395l4.8941395-4.8941395zm-29.9534884-62.511107v-7.8139535h31.255814v7.8139535zm0 13.0232558v-7.8139535h18.2325582v7.8139535zm-24.744186-12.0363535 10.2610232-10.2610232 5.5244651 5.5244651-15.7854883 15.7854883-9.2738605-9.2738604 5.5244651-5.5244651zm24.744186 34.1758884v-7.8139535h31.255814v7.8139535zm0 13.0232558v-7.8139535h18.2325582v7.8139535zm-24.744186-12.0363535 10.2610232-10.2610232 5.5244651 5.5244651-15.7854883 15.7854883-9.2738605-9.2738604 5.5244651-5.5244651z"/><filter id="d" height="101.8%" width="102.1%" x="-1%" y="-.9%"><feOffset dx="2" dy="0" in="SourceAlpha" result="shadowOffsetInner1"/><feComposite in="shadowOffsetInner1" in2="SourceAlpha" k2="-1" k3="1" operator="arithmetic" result="shadowInnerInner1"/><feColorMatrix in="shadowInnerInner1" type="matrix" values="0 0 0 0 1   0 0 0 0 0.152941176   0 0 0 0 0.321568627  0 0 0 0.5 0"/></filter><mask id="e" fill="#fff"><use fill="#fff" fill-rule="evenodd" xlink:href="#a"/></mask></defs><g fill="none" fill-rule="evenodd"><use fill="#000" filter="url(#b)" xlink:href="#a"/><use fill="#ff2752" fill-rule="evenodd" xlink:href="#a"/><g fill="#000" mask="url(#e)"><use fill-rule="evenodd" xlink:href="#c"/><use filter="url(#d)" xlink:href="#c"/></g></g></svg>

<?xml version="1.0" encoding="UTF-8"?>
<svg width="101px" height="112px" viewBox="0 0 101 112" version="1.1" xmlns="http://www.w3.org/2000/svg" xmlns:xlink="http://www.w3.org/1999/xlink">
    <!-- Generator: Sketch 49.1 (51147) - http://www.bohemiancoding.com/sketch -->
    <title>Reviews</title>
    <desc>Created with Sketch.</desc>
    <defs>
        <path d="M0,0 L96.372093,0 L96.372093,91.4779535 L75.8513488,112 L0,112 L0,0 Z M7.81395349,7.81395349 L7.81395349,104.186047 L70.3255814,104.186047 L70.3255814,85.9547907 L88.5581395,85.9547907 L88.5581395,7.81395349 L7.81395349,7.81395349 Z M78.1395349,93.7674419 L78.1395349,98.6615814 L83.0336744,93.7674419 L78.1395349,93.7674419 Z M48.1860465,31.2563349 L48.1860465,23.4423814 L79.4418605,23.4423814 L79.4418605,31.2563349 L48.1860465,31.2563349 Z M48.1860465,44.2795907 L48.1860465,36.4656372 L66.4186047,36.4656372 L66.4186047,44.2795907 L48.1860465,44.2795907 Z M23.4418605,32.2432372 L33.7028837,21.982214 L39.2273488,27.5066791 L23.4418605,43.2921674 L14.168,34.018307 L19.6924651,28.4938419 L23.4418605,32.2432372 Z M48.1860465,66.4191256 L48.1860465,58.6051721 L79.4418605,58.6051721 L79.4418605,66.4191256 L48.1860465,66.4191256 Z M48.1860465,79.4423814 L48.1860465,71.6284279 L66.4186047,71.6284279 L66.4186047,79.4423814 L48.1860465,79.4423814 Z M23.4418605,67.4060279 L33.7028837,57.1450047 L39.2273488,62.6694698 L23.4418605,78.4549581 L14.168,69.1810977 L19.6924651,63.6566326 L23.4418605,67.4060279 Z" id="path-1"></path>
        <filter x="-2.1%" y="-1.8%" width="108.3%" height="103.6%" filterUnits="objectBoundingBox" id="filter-3">
            <feOffset dx="4" dy="0" in="SourceAlpha" result="shadowOffsetOuter1"></feOffset>
            <feColorMatrix values="0 0 0 0 0.0901960784   0 0 0 0 0.882352941   0 0 0 0 0.996078431  0 0 0 1 0" type="matrix" in="shadowOffsetOuter1"></feColorMatrix>
        </filter>
        <path d="M3,0 L99.372093,0 L99.372093,91.4779535 L78.8513488,112 L3,112 L3,0 Z M10.8139535,7.81395349 L10.8139535,104.186047 L73.3255814,104.186047 L73.3255814,85.9547907 L91.5581395,85.9547907 L91.5581395,7.81395349 L10.8139535,7.81395349 Z M81.1395349,93.7674419 L81.1395349,98.6615814 L86.0336744,93.7674419 L81.1395349,93.7674419 Z M51.1860465,31.2563349 L51.1860465,23.4423814 L82.4418605,23.4423814 L82.4418605,31.2563349 L51.1860465,31.2563349 Z M51.1860465,44.2795907 L51.1860465,36.4656372 L69.4186047,36.4656372 L69.4186047,44.2795907 L51.1860465,44.2795907 Z M26.4418605,32.2432372 L36.7028837,21.982214 L42.2273488,27.5066791 L26.4418605,43.2921674 L17.168,34.018307 L22.6924651,28.4938419 L26.4418605,32.2432372 Z M51.1860465,66.4191256 L51.1860465,58.6051721 L82.4418605,58.6051721 L82.4418605,66.4191256 L51.1860465,66.4191256 Z M51.1860465,79.4423814 L51.1860465,71.6284279 L69.4186047,71.6284279 L69.4186047,79.4423814 L51.1860465,79.4423814 Z M26.4418605,67.4060279 L36.7028837,57.1450047 L42.2273488,62.6694698 L26.4418605,78.4549581 L17.168,69.1810977 L22.6924651,63.6566326 L26.4418605,67.4060279 Z" id="path-4"></path>
        <filter x="-1.0%" y="-0.9%" width="102.1%" height="101.8%" filterUnits="objectBoundingBox" id="filter-5">
            <feOffset dx="2" dy="0" in="SourceAlpha" result="shadowOffsetInner1"></feOffset>
            <feComposite in="shadowOffsetInner1" in2="SourceAlpha" operator="arithmetic" k2="-1" k3="1" result="shadowInnerInner1"></feComposite>
            <feColorMatrix values="0 0 0 0 1   0 0 0 0 0.152941176   0 0 0 0 0.321568627  0 0 0 0.5 0" type="matrix" in="shadowInnerInner1"></feColorMatrix>
        </filter>
    </defs>
    <g id="Desktop" stroke="none" stroke-width="1" fill="none" fill-rule="evenodd">
        <g id="Training" transform="translate(-877.000000, -1504.000000)">
            <g id="Services" transform="translate(80.000000, 496.000000)">
                <g id="Reviews" transform="translate(0.000000, 592.000000)">
                    <g id="card" transform="translate(0.000000, 192.000000)">
                        <g id="img" transform="translate(672.000000, 104.000000)">
                            <g id="Page-1" transform="translate(125.000000, 120.000000)">
                                <g id="Reviews">
                                    <mask id="mask-2" fill="white">
                                        <use xlink:href="#path-1"></use>
                                    </mask>
                                    <g id="Mask">
                                        <use fill="black" fill-opacity="1" filter="url(#filter-3)" xlink:href="#path-1"></use>
                                        <use fill="#FF2752" fill-rule="evenodd" xlink:href="#path-1"></use>
                                    </g>
                                    <g id="Combined-Shape" mask="url(#mask-2)">
                                        <use fill="#000000" fill-rule="evenodd" xlink:href="#path-4"></use>
                                        <use fill="black" fill-opacity="1" filter="url(#filter-5)" xlink:href="#path-4"></use>
                                    </g>
                                </g>
                            </g>
                        </g>
                    </g>
                </g>
            </g>
        </g>
    </g>
</svg>
